X: 23715
T: Lisnagun, The
R: jig
M: 6/8
K: Amajor
AFE ~A3|Bce c2a|Bce cBA|BAF AFE|
AFE ~A3|Bce c2a|Bce cBA|1 BAF A2E:|2 BAF A (3Bcd||
e2 c cBA|Bce c2a|Bce cBA|BAF AFE|
e2 c cBA|Bce c2a|Bce cBA|BAF A2d|
e2 c cBA|Bce c2a|Bce cBA|BAF AFE|
AFE ~A3|Bce c2a|B (3Bcd B (3Bcd|B (3Bcd .B2 z||

